X:1
T:Under the Cross of Jesus
T:Under the Cross of Jesus
T:Charles Hutchinson Gabriel
T:Leonard S. Jenkins, 1920
T:Public Domain Courtesy of the Cyber Hymnal™
C:Charles Hutchinson Gabriel
Z:Public Domain
Z:Courtesy of the Cyber Hymnal™
%%score 1 ( 2 3 )
L:1/8
Q:1/4=90
M:6/8
K:Ab
V:1 treble 
V:2 bass 
V:3 bass 
V:1
 [CE] | [CE]>[CE][DF] [CA]2 [DB] | [Ec]2 [Ec] [Ec]2 [EB] | ([FA]>[=EG])[FB] [FA]2 [DF] | %4
w: 1.~We|meet at the cross of|Christ to- day, The|sym- * bol of His|
w: 2.~We|meet at the cross of|Christ to sing The|sweet- * ness of its|
w: 3.~We|meet at the cross of|Christ to bow In|ear- * nest, si- lent|
w: 4.~We|meet at the cross of|Christ: O men, Was|ev- * er love so|
w: 5.~We|meet at the cross of|Christ to wait The|full- * ness of His|
 [DF] [CE]4 [CE] | [B,E]>[B,E][B,F] [EG]2 [EA] | [GB]2 [^F=A] [GB]2 [EG] | [EA]2 [EB] [Ec]2 [A=d] | %8
w: giv- ing; And|long for a fit- ting|word to say, How|sweet the peace of|
w: sto- ry; And|still to the cross of|Christ we cling, Re-|splen- dent yet with|
w: plead- ing; We|think of the thorns up-|on His brow, And|lo, our hearts are|
w: ea- ger? We|wait, as we search our|hearts a- gain— O|hu- man love, how|
w: bless- ing; We|bring emp- ty hands so|late, so late— And|lips so late con-|
 [Ge]3 [Ed]3 ||"^Refrain" [Ec]>[DB][CA] [Ec]2 [EA] | [FA]2 [DF] [FA]3 | [EA]>[EA][EA] [=DB]2 [Dc] | %12
w: liv- ing.||||
w: glo- ry—||||
w: bleed- ing—|Un- der the cross, the|crim- son cross,|Un- der the cross of|
w: mea- ger!||||
w: fess- ing—||||
 [EB]3 [Ge]3 [Ae]>[Ed][Ec] [Ae]2 [_Gc] | [FA]2 [DF] [FA]3 | [CE]>[CE][CE] [EA]2 [Ec] | %15
w: |||
w: |||
w: Je- sus; Un- der the cross, the|crim- son cross,|Un- der the cross of|
w: |||
w: |||
 [DB]3 [CA]2 |] %16
w: |
w: |
w: Je- sus!|
w: |
w: |
V:2
 [A,,A,] | [A,,A,]>[A,,A,][A,,A,] [A,,A,]2 [A,,A,] | A,2 A, A,2 [C,A,] | %3
 [D,D]2 [D,D] [D,D]2 [D,A,] | [A,,A,] [A,,A,]4 [A,,A,] | [E,G,]>[E,G,][E,A,] [E,B,]2 [E,C] | %6
 [E,D]2 [E,C] [E,D]2 [E,B,] | [C,A,]2 [E,G,] A,2 [F,B,] | [E,B,]3 [E,B,]3 || %9
 [A,,A,]>[A,,A,][A,,A,] [A,,A,]2 [C,A,] | [D,D]2 [D,A,] [D,D]3 | %11
 [C,A,]>[C,A,][C,A,] [C,A,]2 [B,,A,] | [E,G,]3 [E,D]3 [A,C]>[A,B,]A, [A,C]2 A, | %13
 [D,D]2 [D,A,] [D,D]3 | [E,A,]>[E,A,][E,A,] [E,C]2 [E,A,] | [E,G,]3 [A,,A,]2 |] %16
V:3
 x | x6 | A,2 A, A,2 x | x6 | x6 | x6 | x6 | x3 A,2 x | x6 || x6 | x6 | x6 | x8 A, x A, x | x6 | %14
 x6 | x5 |] %16

